assets/img/cliff2.svg

<svg width="364" height="350" viewBox="0 0 364 350" fill="none" xmlns="http://www.w3.org/2000/svg">
<path d="M347.814 78.1787C349.927 74.6016 358.083 60.5913 361.896 54.0332L220.195 47.3262L-6.00034 116.633V349.144L4.56131 346.014C43.2873 331.706 110.178 297.724 116.779 294.146C123.38 290.569 124.7 287.439 137.462 267.318C147.671 251.221 153.451 246.005 155.065 245.408C178.3 232.531 188.51 226.927 190.71 225.734C195.991 222.873 216.967 206.954 226.796 199.353C228.996 198.459 247.919 160.005 249.239 156.875C250.295 154.371 253.2 152.851 254.52 152.404C258.481 151.211 268.69 148.469 277.843 147.038C286.997 145.607 291.046 143.759 291.926 143.014C301.901 129.302 322.026 101.34 322.73 99.1942C323.611 96.5114 345.174 82.6501 347.814 78.1787Z" fill="url(#paint0_linear_132_2452)"/>
<path d="M254.421 20.9941C239.744 15.6569 219.072 13.1366 210.57 12.5436C201.621 12.6919 181.933 12.9885 174.774 12.9885C167.615 12.9885 162.842 11.8025 161.35 11.2095C139.514 3.38161 117.35 0.53497 108.998 0.0901353C79.6444 -0.621489 20.1026 3.05524 -5.99915 4.98255V129.962C-5.99915 136.188 75.2596 145.551 84.6357 134.389C85.7844 133.022 87.761 129.478 85.2823 124.624C83.4925 121.659 82.2396 115.551 91.5468 114.84C100.854 114.128 110.34 109.502 113.92 107.279C121.825 102.979 137.903 94.2025 138.977 93.4908C140.32 92.6013 143.004 93.4908 151.506 95.2699C158.308 96.6931 160.903 96.4559 161.35 96.1594C166.571 92.8978 177.727 85.8409 180.591 83.706C183.455 81.5711 187.154 82.8165 188.645 83.706C207.617 91.5339 218.625 94.0838 221.757 94.3804C225.039 92.453 233.033 87.0862 238.761 81.0374C244.488 74.9886 248.605 75.2555 249.947 76.145C254.422 77.6275 265.25 81.1264 272.767 83.2612C282.164 85.9298 287.123 84.3841 294.926 84.3841C297.79 84.3841 298.72 81.9269 298.72 81.0374V73.9212C298.362 64.67 302.516 64.8103 306.981 65.6321C316.647 67.4111 328.55 66.2119 334.069 65.4706C371.297 57.6427 365.689 48.8661 358.231 45.4562C337.201 39.2295 332.279 36.5609 325.119 33.4475C317.96 30.3342 319.75 30.7789 311.248 29.4446C304.447 28.3772 296.482 27.8138 293.35 27.6656C286.489 27.6656 269.098 26.3313 254.421 20.9941Z" fill="url(#paint1_linear_132_2452)"/>
<defs>
<linearGradient id="paint0_linear_132_2452" x1="177.682" y1="66.0586" x2="-6.31837" y2="430.559" gradientUnits="userSpaceOnUse">
<stop stop-color="#5F4172"/>
<stop offset="1" stop-color="#13091A"/>
</linearGradient>
<linearGradient id="paint1_linear_132_2452" x1="105.684" y1="-0.440422" x2="44.6836" y2="187.56" gradientUnits="userSpaceOnUse">
<stop stop-color="#C7A1C7"/>
<stop offset="1" stop-color="#A986A9"/>
</linearGradient>
</defs>
</svg>

<?xml version="1.0" encoding="utf-8"?>
<!-- Generator: Adobe Illustrator 16.0.0, SVG Export Plug-In . SVG Version: 6.00 Build 0)  -->
<!DOCTYPE svg PUBLIC "-//W3C//DTD SVG 1.1//EN" "http://www.w3.org/Graphics/SVG/1.1/DTD/svg11.dtd">
<svg version="1.1" id="Layer_1" xmlns="http://www.w3.org/2000/svg" xmlns:xlink="http://www.w3.org/1999/xlink" x="0px" y="0px"
	 width="364px" height="350px" viewBox="0 0 364 350" enable-background="new 0 0 364 350" xml:space="preserve">
<linearGradient id="SVGID_1_" gradientUnits="userSpaceOnUse" x1="233.3086" y1="109.96" x2="49.3078" y2="-254.5413" gradientTransform="matrix(1 0 0 -1 -47.6602 180.04)">
	<stop  offset="0" style="stop-color:#7575BF"/>
	<stop  offset="1" style="stop-color:#7575DE"/>
</linearGradient>
<path fill="url(#SVGID_1_)" d="M347.814,78.179c2.112-3.577,10.269-17.587,14.082-24.146l-141.701-6.707L-6,116.633v232.512
	l10.562-3.131c38.726-14.308,105.617-48.289,112.217-51.867c6.601-3.578,7.921-6.707,20.683-26.828
	c10.209-16.098,15.989-21.313,17.603-21.91c23.235-12.877,33.445-18.481,35.645-19.674c5.281-2.861,26.257-18.78,36.086-26.381
	c2.2-0.895,21.123-39.349,22.442-42.479c1.057-2.504,3.962-4.024,5.281-4.471c3.961-1.193,14.17-3.935,23.323-5.366
	c9.154-1.431,13.203-3.279,14.083-4.024c9.976-13.712,30.101-41.674,30.805-43.82C323.611,96.511,345.174,82.65,347.814,78.179z"/>
<path fill="#9797FF" d="M254.421,20.994c-14.677-5.337-35.349-7.857-43.851-8.451c-8.949,0.148-28.637,0.445-35.796,0.445
	c-7.159,0-11.932-1.186-13.424-1.779c-21.836-7.828-44-10.674-52.352-11.119C79.645-0.622,20.103,3.055-5.999,4.982v124.979
	c0,6.226,81.259,15.589,90.635,4.427c1.148-1.367,3.125-4.911,0.646-9.765c-1.79-2.965-3.042-9.073,6.265-9.784
	c9.307-0.712,18.793-5.338,22.373-7.561c7.905-4.3,23.983-13.076,25.057-13.788c1.343-0.889,4.027,0,12.529,1.779
	c6.802,1.423,9.397,1.186,9.844,0.889c5.221-3.261,16.377-10.318,19.241-12.453c2.864-2.135,6.563-0.89,8.054,0
	c18.973,7.828,29.98,10.378,33.112,10.674c3.282-1.927,11.276-7.294,17.005-13.343c5.727-6.049,9.844-5.782,11.186-4.893
	c4.475,1.482,15.303,4.981,22.82,7.116c9.396,2.668,14.355,1.123,22.158,1.123c2.864,0,3.794-2.458,3.794-3.347v-7.116
	c-0.357-9.251,3.796-9.111,8.262-8.29c9.666,1.779,21.568,0.58,27.088-0.161c37.228-7.828,31.62-16.604,24.162-20.015
	c-21.03-6.227-25.952-8.895-33.112-12.009c-7.159-3.113-5.369-2.668-13.871-4.003c-6.801-1.067-14.766-1.63-17.898-1.779
	C286.489,27.666,269.098,26.331,254.421,20.994z"/>
</svg>
